src/svg/sort-alphabetically-outline.svg

<svg version="1.2" baseProfile="tiny" xmlns="http://www.w3.org/2000/svg" width="24" height="24" viewBox="0 0 24 24"><g><path d="M5.618 14h2.764l-1.382-2.764zM21 14l2.4-3.2c.686-.915.795-2.119.284-3.142-.512-1.023-1.54-1.658-2.684-1.658h-6c-1.654 0-3 1.346-3 3 0 .77.295 1.469.774 2h-.274c-.368 0-.708.107-1.005.281l-1.811-3.623c-.498-.995-1.527-1.614-2.684-1.614s-2.186.619-2.684 1.614l-4 8c-.358.717-.416 1.53-.163 2.291s.788 1.376 1.504 1.735c.414.207.879.316 1.342.316 1.143 0 2.171-.635 2.684-1.657l.171-.343h2.291l.171.342c.512 1.023 1.54 1.658 2.684 1.658.464 0 .928-.109 1.342-.316.243-.122.455-.282.652-.458.54.488 1.246.774 2.006.774h6c1.654 0 3-1.346 3-3s-1.346-3-3-3zm-9.553 3.895c-.143.071-.296.105-.446.105-.368 0-.721-.203-.896-.553l-.723-1.447h-4.764l-.724 1.447c-.175.35-.528.553-.895.553-.15 0-.303-.034-.446-.106-.494-.247-.694-.848-.447-1.342l4-8c.169-.338.532-.508.894-.508s.725.169.895.508l4 8c.247.495.046 1.095-.448 1.343zm1.053-3.895c-.552 0-1-.448-1-1s.448-1 1-1h1c.552 0 1 .448 1 1s-.448 1-1 1h-1zm8.5 4h-6c-.379 0-.725-.214-.895-.553s-.132-.744.095-1.047l4.8-6.4h-4c-.552 0-1-.448-1-1s.448-1 1-1h6c.379 0 .725.214.895.553s.132.744-.095 1.047l-4.8 6.4h4c.552 0 1 .448 1 1s-.448 1-1 1z"/></g></svg>

<?xml version="1.0" encoding="iso-8859-1"?>
<!-- Generator: Adobe Illustrator 16.2.1, SVG Export Plug-In . SVG Version: 6.00 Build 0)  -->
<svg version="1.2" baseProfile="tiny" xmlns="http://www.w3.org/2000/svg" xmlns:xlink="http://www.w3.org/1999/xlink" x="0px"
	 y="0px" width="24px" height="24px" viewBox="0 0 24 24" xml:space="preserve">
<g id="Layer_1">
	<polygon points="5.618,14 8.382,14 7,11.236 	"/>
	<g>
		<path d="M21,14l2.4-3.2c0.686-0.915,0.795-2.119,0.284-3.142C23.172,6.635,22.144,6,21,6h-6c-1.654,0-3,1.346-3,3
			c0,0.77,0.295,1.469,0.774,2H12.5c-0.368,0-0.708,0.107-1.005,0.281L9.684,7.658C9.186,6.663,8.157,6.044,7,6.044
			S4.814,6.663,4.316,7.658l-4,8c-0.358,0.717-0.416,1.53-0.163,2.291s0.788,1.376,1.504,1.735C2.071,19.891,2.536,20,2.999,20
			c1.143,0,2.171-0.635,2.684-1.657L5.854,18h2.291l0.171,0.342C8.828,19.365,9.856,20,11,20c0.464,0,0.928-0.109,1.342-0.316
			c0.243-0.122,0.455-0.282,0.652-0.458C13.534,19.714,14.24,20,15,20h6c1.654,0,3-1.346,3-3S22.654,14,21,14z M11.447,17.895
			C11.304,17.966,11.151,18,11.001,18c-0.368,0-0.721-0.203-0.896-0.553L9.382,16H4.618l-0.724,1.447
			C3.719,17.797,3.366,18,2.999,18c-0.15,0-0.303-0.034-0.446-0.106c-0.494-0.247-0.694-0.848-0.447-1.342l4-8
			C6.275,8.214,6.638,8.044,7,8.044s0.725,0.169,0.895,0.508l4,8C12.142,17.047,11.941,17.647,11.447,17.895z M12.5,14
			c-0.552,0-1-0.448-1-1s0.448-1,1-1h1c0.552,0,1,0.448,1,1s-0.448,1-1,1H12.5z M21,18h-6c-0.379,0-0.725-0.214-0.895-0.553
			S13.973,16.703,14.2,16.4L19,10h-4c-0.552,0-1-0.448-1-1s0.448-1,1-1h6c0.379,0,0.725,0.214,0.895,0.553S22.027,9.297,21.8,9.6
			L17,16h4c0.552,0,1,0.448,1,1S21.552,18,21,18z"/>
	</g>
</g>
<g id="nyt_x5F_exporter_x5F_info" display="none">
</g>
</svg>
